X: 2
T: NoMaD 2005 Quadrille Set - Part 2
P: 4x(AABCD)
K:
%
P: Lord Huntley's Cave
C: J.S.Skinner
M: C|
L: 1/8
K: D
"A"|: de | "D"f2A2 gfed | f2A2 d2cd |1,3 "A7"e2A2 agfe | "D"dcdf "A7"eA :|2,4 ea"A7"ca Aaca | "D"d6 :|
"B"|: fg | "D"a3f  d2a2 | fAa2 d2cd |1   "A7"e2A2 agfe | "D"dcdf "A7"eA :|2   ea"A7"ca Aaca | "D"d6 |]
%
P: The Flowers of Edinburgh
O: Trad
M: C|
L: 1/8
K: G
"C"[|]\
GE \
| "G"D2DE G2GA | BGBd cBAG | "D7"FGFE DEFG | AFdF E2GE |
| "G"D2DE G2GA | "G"BGBd "C"efge | "G"dcBA "D7"GFGA | "G"B2G2 G2 "D"|]
d2 \
| "G"g2gd gbag | "D7"f2fd fagf | "Em"~e2ef gfed | B2e2 "(C)"e2ge |
| "G"dBGB d2d2 | "C"edef g2fe | "G"dcBA "D7"GFGA | "G"B2G2 G2 |]

